X: 432
T: Buzhidao gege shenhui lai
L: 1/8
M: 2/4
K: C
d dd2 [I:setbarnb 1]| 
e d/ e/d2 | 
e d d A | 
c4 | 
d A/ c/d2 | 
d c/ A< G A/ | 
cd2A | 
G4 |]

@@@ Tune index: 9306
